brandFactory_export/1.Light/Data stripes_1Light.svg

<?xml version="1.0" encoding="UTF-8"?>
<svg width="24px" height="24px" viewBox="0 0 24 24" version="1.1" xmlns="http://www.w3.org/2000/svg" xmlns:xlink="http://www.w3.org/1999/xlink">
    <title>1.Light/Data stripes_1Light</title>
    <g id="Symbols" stroke="none" stroke-width="1" fill="none" fill-rule="evenodd">
        <g id="1.Light/Data-stripes_1Light" fill="#5CB615" fill-rule="nonzero">
            <path d="M20.4571429,20.7798319 C19.1731092,21.1630252 17.4857143,21.3714286 15.7008403,21.3714286 C14.3327731,21.3714286 13.0252101,21.2470588 11.9058824,21.0151261 C13.2302521,19.9831933 14.4134454,18.7327731 14.6386555,17.4453782 C14.6689076,17.2705882 14.692437,17.0957983 14.7159664,16.9210084 C15.0453782,16.9344538 15.3747899,16.9512605 15.7142857,16.9512605 C17.5966387,16.9512605 19.3848739,16.7260504 20.7495798,16.3159664 C21.4991597,16.0907563 22.1378151,15.7781513 22.6353056,15.4084034 L22.6353056,19.0420168 C22.6386555,19.7613445 21.902521,20.3428571 20.4571429,20.7798319 L20.4571429,20.7798319 Z M1.37142857,17.2739496 C1.27394958,16.6521008 1.20336134,16.0235294 1.16638655,15.394958 L6.97142857,15.394958 L6.97142857,22.3058824 C5.02857143,21.2773109 1.70084034,19.1596639 1.37142857,17.2739496 Z M4.28571429,8.81008403 C5.06218487,8.29915966 5.79831933,7.81512605 6.97142857,7.69747899 L6.97142857,14.4134454 L1.10252101,14.4134454 C1.01512605,12.6823529 0.991596639,10.8201681 0.988235294,9.92268908 C2.47058824,9.98991597 3.39495798,9.39831933 4.28571429,8.81008403 L4.28571429,8.81008403 Z M8.77310924,4.44705882 C9.24369748,4.80672269 9.8789916,5.10588235 10.6823529,5.34789916 C12.0470588,5.75798319 13.8352941,5.98319328 15.7176471,5.98319328 C17.6,5.98319328 19.3882353,5.75798319 20.7529412,5.34789916 C21.5529412,5.1092437 22.1747899,4.81680672 22.6386555,4.46722689 L22.6386555,8.49411765 C22.4033613,8.92773109 21.7277311,9.50252101 20.4705882,9.87563025 C19.1966387,10.2588235 17.5092437,10.4705882 15.7210084,10.4705882 C15.4890756,10.4705882 15.2638655,10.4571429 15.0352941,10.4504202 C15.0386555,9.83865546 15.0386555,9.42857143 15.0386555,9.36806723 C15.0319328,9.22352941 14.9647059,9.08907563 14.8504202,8.99831933 C14.7361345,8.90756303 14.5882353,8.86722689 14.4403361,8.8907563 C12.994958,9.11260504 12.2453782,8.61848739 11.2941176,7.98991597 C10.6084034,7.53613445 9.85210084,7.03865546 8.77310924,6.81344538 L8.77310924,4.44705882 L8.77310924,4.44705882 Z M10.9478992,1.57647059 C12.2252101,1.19663866 13.9092437,0.98487395 15.7008403,0.98487395 C17.492437,0.98487395 19.1798319,1.19663866 20.4537815,1.57647059 C21.697479,1.94957983 22.410084,2.43361345 22.5882353,3.02184874 C22.5848739,3.02857143 22.5781513,3.03529412 22.5747899,3.04201681 C22.3663866,3.58655462 21.6369748,4.05714286 20.4638655,4.41008403 C19.189916,4.78991597 17.502521,5.00168067 15.7142857,5.00168067 C13.9260504,5.00168067 12.2386555,4.78991597 10.9647059,4.41008403 C9.76134454,4.04705882 9.02521008,3.56302521 8.83697479,2.99831933 C8.83697479,2.99495798 8.83361345,2.99159664 8.8302521,2.98823529 C9.02184874,2.42689076 9.74789916,1.9394958 10.9478992,1.57647059 Z M15.0184874,11.4319328 C15.2504202,11.4386555 15.4823529,11.4521008 15.7176471,11.4521008 C17.6,11.4521008 19.3882353,11.2268908 20.7529412,10.8168067 C21.5058824,10.5915966 22.1411765,10.2789916 22.6386555,9.91260504 L22.6386555,13.9932773 C22.4033613,14.4268908 21.7210084,14.9983193 20.4705882,15.3747899 C19.1966387,15.7579832 17.5092437,15.9663866 15.7210084,15.9663866 C15.4151261,15.9663866 15.1226891,15.9495798 14.8268908,15.9394958 C14.9411765,14.5142857 14.994958,12.7697479 15.0184874,11.4319328 L15.0184874,11.4319328 Z M7.95630252,7.6907563 C9.18991597,7.78823529 9.95294118,8.28571429 10.7495798,8.81344538 C11.6302521,9.39495798 12.5445378,10 14.0470588,9.91596639 C14.0470588,10.1512605 14.0436975,10.4638655 14.0403361,10.8168067 C14.0336134,10.8470588 14.0201681,10.8773109 14.0168067,10.907563 C14.0134454,10.9546218 14.0268908,10.9983193 14.0369748,11.0420168 C14.0235294,12.1680672 13.989916,13.2907563 13.9361345,14.4134454 L7.95630252,14.4134454 L7.95630252,7.6907563 Z M7.95630252,22.3596639 L7.95630252,15.394958 L13.8756303,15.394958 C13.8521008,15.7109244 13.8285714,16.0134454 13.7983193,16.2957983 C13.7915966,16.3260504 13.7781513,16.3529412 13.7747899,16.3798319 C13.7747899,16.4033613 13.7815126,16.4235294 13.7815126,16.4436975 C13.7478992,16.7495798 13.7142857,17.0319328 13.6705882,17.2739496 C13.3344538,19.1932773 9.87563025,21.3579832 7.95630252,22.3596639 L7.95630252,22.3596639 Z M15.7042017,0 C13.8218487,0 12.0336134,0.225210084 10.6689076,0.635294118 C9.0789916,1.11260504 8.13445378,1.82521008 7.86554622,2.74957983 L7.86554622,2.75294118 C7.81512605,2.93445378 7.78823529,3.11932773 7.78823529,3.30756303 L7.78823529,6.69579832 C7.70084034,6.69243697 7.61680672,6.68235294 7.52268908,6.68235294 C5.71764706,6.68235294 4.66890756,7.37478992 3.74453782,7.98655462 C2.79327731,8.61512605 2.04705882,9.11596639 0.61512605,8.8907563 C0.349579832,8.82689076 0.0806722689,8.98823529 0.0168067227,9.25378151 C0.00672268908,9.2907563 0.00326774506,9.33109244 0.00326774506,9.36806723 C0.00326774506,9.6 -0.0134453782,15.0756303 0.403361345,17.4420168 C0.941176471,20.5478992 7.04537815,23.4554622 7.30756303,23.5764706 C7.44201681,23.6403361 7.59663866,23.6403361 7.72773109,23.5764706 C7.85210084,23.5159664 9.31428571,22.8201681 10.8672269,21.7714286 C12.2117647,22.1445378 13.912605,22.3563025 15.7008403,22.3563025 C17.5764706,22.3563025 19.3680672,22.1310924 20.7394958,21.7210084 C22.6521008,21.1462185 23.6201681,20.2453782 23.6201681,19.0453782 L23.6201681,3.31092437 C23.6201681,2.11092437 22.6521008,1.21008403 20.7394958,0.635294118 C19.3781513,0.225210084 17.5865546,0 15.7042017,0 Z" id="Data-stripes_1Light"></path>
        </g>
    </g>
</svg>

<svg width="24" height="24" viewBox="0 0 24 24" xmlns="http://www.w3.org/2000/svg"><path d="M20.457 20.78c-1.284.383-2.971.591-4.756.591-1.368 0-2.676-.124-3.795-.356 1.324-1.032 2.507-2.282 2.733-3.57.03-.174.053-.35.077-.524.33.013.659.03.998.03 1.883 0 3.67-.225 5.036-.635.75-.225 1.388-.538 1.885-.908v3.634c.004.72-.732 1.3-2.178 1.738zM1.371 17.274a19.574 19.574 0 01-.205-1.879h5.805v6.91c-1.942-1.028-5.27-3.145-5.6-5.031zM4.286 8.81c.776-.51 1.512-.995 2.685-1.113v6.716H1.103c-.088-1.73-.111-3.593-.115-4.49 1.483.067 2.407-.525 3.298-1.113zm4.487-4.363c.47.36 1.106.659 1.91.9 1.364.411 3.152.636 5.035.636 1.882 0 3.67-.225 5.035-.635.8-.239 1.422-.531 1.886-.88v4.026c-.236.434-.911 1.009-2.168 1.382-1.274.383-2.962.595-4.75.595-.232 0-.457-.014-.686-.02.004-.612.004-1.022.004-1.083a.5.5 0 00-.189-.37.525.525 0 00-.41-.107c-1.445.222-2.195-.273-3.146-.901-.686-.454-1.442-.951-2.52-1.177V4.447zm2.175-2.87c1.277-.38 2.961-.592 4.753-.592 1.791 0 3.479.212 4.753.591 1.243.374 1.956.858 2.134 1.446-.003.007-.01.013-.013.02-.209.545-.938 1.015-2.111 1.368-1.274.38-2.961.592-4.75.592-1.788 0-3.475-.212-4.75-.592-1.203-.363-1.939-.847-2.127-1.412 0-.003-.003-.006-.007-.01.192-.561.918-1.049 2.118-1.412zm4.07 9.855c.232.007.464.02.7.02 1.882 0 3.67-.225 5.035-.635.753-.225 1.388-.538 1.886-.904v4.08c-.236.434-.918 1.005-2.168 1.382-1.274.383-2.962.591-4.75.591-.306 0-.598-.016-.894-.027.114-1.425.168-3.17.191-4.507zM7.956 7.69c1.234.097 1.997.595 2.794 1.122.88.582 1.795 1.187 3.297 1.103 0 .235-.003.548-.007.9-.006.031-.02.061-.023.092-.004.047.01.09.02.134a93.832 93.832 0 01-.1 3.371h-5.98V7.691zm0 14.669v-6.965h5.92c-.024.316-.047.618-.078.9-.006.031-.02.058-.023.085 0 .023.007.044.007.064-.034.306-.068.588-.111.83-.337 1.92-3.795 4.084-5.715 5.086zM15.704 0c-1.882 0-3.67.225-5.035.635-1.59.478-2.535 1.19-2.803 2.115v.003c-.05.181-.078.366-.078.555v3.388c-.087-.004-.171-.014-.265-.014-1.805 0-2.854.693-3.778 1.305-.952.628-1.698 1.129-3.13.904a.495.495 0 00-.612.477c0 .232-.016 5.708.4 8.074.538 3.106 6.642 6.013 6.905 6.134.134.064.289.064.42 0 .124-.06 1.586-.756 3.14-1.805 1.344.374 3.045.585 4.833.585 1.875 0 3.667-.225 5.038-.635 1.913-.575 2.881-1.476 2.881-2.676V3.311c0-1.2-.968-2.1-2.88-2.676C19.377.225 17.586 0 15.703 0z" fill="#5CB615" fill-rule="nonzero"/></svg>
